static/img/kroki/974015ac991c80d7e3998e9855a9074c.svg

<?xml version="1.0" encoding="us-ascii" standalone="no"?><svg xmlns="http://www.w3.org/2000/svg" xmlns:xlink="http://www.w3.org/1999/xlink" contentStyleType="text/css" height="352px" preserveAspectRatio="none" style="width:392px;height:352px;" version="1.1" viewBox="0 0 392 352" width="392px" zoomAndPan="magnify"><defs/><g><!--class digitalocean_app--><g id="elem_digitalocean_app"><rect codeLine="22" fill="#3D176E" height="39.7891" id="digitalocean_app" rx="2.5" ry="2.5" style="stroke:#000D19;stroke-width:0.5;" width="182" x="85.03" y="306.37"/><ellipse cx="100.03" cy="326.2645" fill="#ADD1B2" rx="11" ry="11" style="stroke:#181818;stroke-width:1.0;"/><path d="M102.9988,331.9052 Q102.4206,332.202 101.78,332.3427 Q101.1394,332.4989 100.4363,332.4989 Q97.9363,332.4989 96.6081,330.8583 Q95.2956,329.202 95.2956,326.077 Q95.2956,322.952 96.6081,321.2958 Q97.9363,319.6395 100.4363,319.6395 Q101.1394,319.6395 101.78,319.7958 Q102.4363,319.952 102.9988,320.2489 L102.9988,322.9677 Q102.3738,322.3895 101.78,322.1239 Q101.1863,321.8427 100.5613,321.8427 Q99.2175,321.8427 98.53,322.9208 Q97.8425,323.9833 97.8425,326.077 Q97.8425,328.1708 98.53,329.2489 Q99.2175,330.3114 100.5613,330.3114 Q101.1863,330.3114 101.78,330.0458 Q102.3738,329.7645 102.9988,329.1864 L102.9988,331.9052 Z " fill="#000000"/><text fill="#D9B8FF" font-family="Helvetica" font-size="17" lengthAdjust="spacing" textLength="140" x="119.03" y="332.1498">digitalocean_app</text></g><!--class digitalocean_database--><g id="elem_digitalocean_database"><rect codeLine="24" fill="#3D176E" height="39.7891" id="digitalocean_database" rx="2.5" ry="2.5" style="stroke:#000D19;stroke-width:0.5;" width="227" x="62.53" y="206.58"/><ellipse cx="77.53" cy="226.4745" fill="#ADD1B2" rx="11" ry="11" style="stroke:#181818;stroke-width:1.0;"/><path d="M80.4988,232.1152 Q79.9206,232.412 79.28,232.5527 Q78.6394,232.7089 77.9363,232.7089 Q75.4363,232.7089 74.1081,231.0683 Q72.7956,229.412 72.7956,226.287 Q72.7956,223.162 74.1081,221.5058 Q75.4363,219.8495 77.9363,219.8495 Q78.6394,219.8495 79.28,220.0058 Q79.9363,220.162 80.4988,220.4589 L80.4988,223.1777 Q79.8738,222.5995 79.28,222.3339 Q78.6863,222.0527 78.0613,222.0527 Q76.7175,222.0527 76.03,223.1308 Q75.3425,224.1933 75.3425,226.287 Q75.3425,228.3808 76.03,229.4589 Q76.7175,230.5214 78.0613,230.5214 Q78.6863,230.5214 79.28,230.2558 Q79.8738,229.9745 80.4988,229.3964 L80.4988,232.1152 Z " fill="#000000"/><text fill="#D9B8FF" font-family="Helvetica" font-size="17" lengthAdjust="spacing" textLength="185" x="96.53" y="232.3598">digitalocean_database</text></g><!--class digitalocean_region--><g id="elem_digitalocean_region"><rect codeLine="26" fill="#3D176E" height="39.7891" id="digitalocean_region" rx="2.5" ry="2.5" style="stroke:#000D19;stroke-width:0.5;" width="205" x="180.53" y="106.79"/><ellipse cx="195.53" cy="126.6845" fill="#ADD1B2" rx="11" ry="11" style="stroke:#181818;stroke-width:1.0;"/><path d="M198.4988,132.3252 Q197.9206,132.622 197.28,132.7627 Q196.6394,132.9189 195.9363,132.9189 Q193.4363,132.9189 192.1081,131.2783 Q190.7956,129.622 190.7956,126.497 Q190.7956,123.372 192.1081,121.7158 Q193.4363,120.0595 195.9363,120.0595 Q196.6394,120.0595 197.28,120.2158 Q197.9363,120.372 198.4988,120.6689 L198.4988,123.3877 Q197.8738,122.8095 197.28,122.5439 Q196.6863,122.2627 196.0613,122.2627 Q194.7175,122.2627 194.03,123.3408 Q193.3425,124.4033 193.3425,126.497 Q193.3425,128.5908 194.03,129.6689 Q194.7175,130.7314 196.0613,130.7314 Q196.6863,130.7314 197.28,130.4658 Q197.8738,130.1845 198.4988,129.6064 L198.4988,132.3252 Z " fill="#000000"/><text fill="#D9B8FF" font-family="Helvetica" font-size="17" lengthAdjust="spacing" textLength="163" x="214.53" y="132.5698">digitalocean_region</text></g><!--class digitalocean_team--><g id="elem_digitalocean_team"><rect codeLine="28" fill="#3D176E" height="39.7891" id="digitalocean_team" rx="2.5" ry="2.5" style="stroke:#000D19;stroke-width:0.5;" width="196" x="30.03" y="7"/><ellipse cx="45.03" cy="26.8945" fill="#ADD1B2" rx="11" ry="11" style="stroke:#181818;stroke-width:1.0;"/><path d="M47.9988,32.5352 Q47.4206,32.832 46.78,32.9727 Q46.1394,33.1289 45.4363,33.1289 Q42.9363,33.1289 41.6081,31.4883 Q40.2956,29.832 40.2956,26.707 Q40.2956,23.582 41.6081,21.9258 Q42.9363,20.2695 45.4363,20.2695 Q46.1394,20.2695 46.78,20.4258 Q47.4363,20.582 47.9988,20.8789 L47.9988,23.5977 Q47.3738,23.0195 46.78,22.7539 Q46.1863,22.4727 45.5613,22.4727 Q44.2175,22.4727 43.53,23.5508 Q42.8425,24.6133 42.8425,26.707 Q42.8425,28.8008 43.53,29.8789 Q44.2175,30.9414 45.5613,30.9414 Q46.1863,30.9414 46.78,30.6758 Q47.3738,30.3945 47.9988,29.8164 L47.9988,32.5352 Z " fill="#000000"/><text fill="#D9B8FF" font-family="Helvetica" font-size="17" lengthAdjust="spacing" textLength="154" x="64.03" y="32.7798">digitalocean_team</text></g><!--link digitalocean_database to digitalocean_app--><g id="link_digitalocean_database_digitalocean_app"><path codeLine="30" d="M176.03,246.8 C176.03,263.94 176.03,282.85 176.03,299.99 " fill="none" id="digitalocean_database-to-digitalocean_app" style="stroke:#1A83AF;stroke-width:2.0;"/><polygon fill="#1A83AF" points="176.03,305.99,180.03,296.99,176.03,300.99,172.03,296.99,176.03,305.99" style="stroke:#1A83AF;stroke-width:2.0;"/></g><!--link digitalocean_region to digitalocean_app--><g id="link_digitalocean_region_digitalocean_app"><path codeLine="31" d="M294.6,147.04 C307.67,171.64 324.92,214.71 307.03,246.37 C291.23,274.34 266.5637,291.0105 239.1737,303.4405 " fill="none" id="digitalocean_region-to-digitalocean_app" style="stroke:#1A83AF;stroke-width:2.0;"/><polygon fill="#1A83AF" points="233.71,305.92,243.5586,305.8432,238.2631,303.8537,240.2525,298.5583,233.71,305.92" style="stroke:#1A83AF;stroke-width:2.0;"/></g><!--link digitalocean_region to digitalocean_database--><g id="link_digitalocean_region_digitalocean_database"><path codeLine="32" d="M261.89,147.01 C243.13,164.15 220.2974,185.0106 201.5574,202.1506 " fill="none" id="digitalocean_region-to-digitalocean_database" style="stroke:#1A83AF;stroke-width:2.0;"/><polygon fill="#1A83AF" points="197.13,206.2,206.4708,203.0775,200.8195,202.8255,201.0715,197.1742,197.13,206.2" style="stroke:#1A83AF;stroke-width:2.0;"/></g><!--link digitalocean_team to digitalocean_app--><g id="link_digitalocean_team_digitalocean_app"><path codeLine="33" d="M109.78,47.17 C74.99,86.32 6,177.31 45.03,246.37 C60.83,274.34 85.4963,291.0105 112.8863,303.4405 " fill="none" id="digitalocean_team-to-digitalocean_app" style="stroke:#1A83AF;stroke-width:2.0;"/><polygon fill="#1A83AF" points="118.35,305.92,111.8075,298.5583,113.7969,303.8537,108.5014,305.8432,118.35,305.92" style="stroke:#1A83AF;stroke-width:2.0;"/></g><!--link digitalocean_team to digitalocean_database--><g id="link_digitalocean_team_digitalocean_database"><path codeLine="34" d="M132.72,47.2 C141.9,84.97 160.7136,162.4296 169.9036,200.2596 " fill="none" id="digitalocean_team-to-digitalocean_database" style="stroke:#1A83AF;stroke-width:2.0;"/><polygon fill="#1A83AF" points="171.32,206.09,173.0824,196.4001,170.1397,201.2313,165.3085,198.2886,171.32,206.09" style="stroke:#1A83AF;stroke-width:2.0;"/></g><!--link digitalocean_team to digitalocean_region--><g id="link_digitalocean_team_digitalocean_region"><path codeLine="35" d="M158.65,47.22 C185.83,64.36 220.2456,86.0784 247.3956,103.2084 " fill="none" id="digitalocean_team-to-digitalocean_region" style="stroke:#1A83AF;stroke-width:2.0;"/><polygon fill="#1A83AF" points="252.47,106.41,246.9928,98.2246,248.2413,103.742,242.724,104.9905,252.47,106.41" style="stroke:#1A83AF;stroke-width:2.0;"/></g><!--SRC=[hP31Ji9048RlVOfDE9DGYG8Naq92z4ACU3F6JBkpPKExsymE4ZI-krJ4hDqMel6w_xVpVpChBL5WMV5Eb5YcI2voQsqg82X5GcItCrjO4ZsbG0r7pN1k3Py55b2YkC7Y1Lbdq2GULZfR6tHEN7ZH5B9rJdPZv64y4nYtZz2mHyqAS2vX9frk63qPEKd7IZN9vj3UKCQZAmmmInBf2naC1ZAUD96pLIVt_YQM-XL5x1zjOHa3pQ3YapffMHEUPB3eCUzql0CfjSd5fVTsVt0YW_JZVRa2QRSrhQ1mVerZ9BIygt0MR8MJiLIZLlYs2yxgomcfSyrGs0p1F4DLYRVelIsIm922mwwSCDVMTAMCUwSwQv_PV-p5oNYOp9_wru5HrDRpdp-E6b6e_8kQC_oVIWxg7m00]--></g></svg>

<svg xmlns="http://www.w3.org/2000/svg" width="392" height="352" viewBox="0 0 392 352"><rect width="182" height="39.789" x="85.03" y="306.37" fill="#3D176E" rx="2.5" ry="2.5" style="stroke:#000d19;stroke-width:.5"/><circle cx="100.03" cy="326.264" r="11" fill="#ADD1B2" style="stroke:#181818;stroke-width:1"/><path d="M102.999 331.905q-.578.297-1.219.438-.64.156-1.344.156-2.5 0-3.828-1.64-1.312-1.657-1.312-4.782t1.312-4.781q1.328-1.656 3.828-1.656.703 0 1.344.156.656.156 1.219.453v2.719q-.625-.579-1.219-.844-.594-.281-1.219-.281-1.344 0-2.031 1.078-.687 1.062-.687 3.156t.687 3.172q.688 1.062 2.031 1.062.625 0 1.219-.265.594-.281 1.219-.86z"/><text x="119.03" y="332.15" fill="#D9B8FF" font-family="Helvetica" font-size="17" textLength="140">digitalocean_app</text><rect width="227" height="39.789" x="62.53" y="206.58" fill="#3D176E" rx="2.5" ry="2.5" style="stroke:#000d19;stroke-width:.5"/><circle cx="77.53" cy="226.475" r="11" fill="#ADD1B2" style="stroke:#181818;stroke-width:1"/><path d="M80.499 232.115q-.578.297-1.219.438-.64.156-1.344.156-2.5 0-3.828-1.64-1.312-1.657-1.312-4.782t1.312-4.781q1.328-1.656 3.828-1.656.703 0 1.344.156.656.156 1.219.453v2.719q-.625-.578-1.219-.844-.594-.281-1.219-.281-1.344 0-2.031 1.078-.687 1.062-.687 3.156t.687 3.172q.688 1.062 2.031 1.062.625 0 1.219-.265.594-.281 1.219-.86z"/><text x="96.53" y="232.36" fill="#D9B8FF" font-family="Helvetica" font-size="17" textLength="185">digitalocean_database</text><rect width="205" height="39.789" x="180.53" y="106.79" fill="#3D176E" rx="2.5" ry="2.5" style="stroke:#000d19;stroke-width:.5"/><circle cx="195.53" cy="126.684" r="11" fill="#ADD1B2" style="stroke:#181818;stroke-width:1"/><path d="M198.499 132.325q-.578.297-1.219.438-.64.156-1.344.156-2.5 0-3.828-1.64-1.312-1.657-1.312-4.782t1.312-4.781q1.328-1.656 3.828-1.656.703 0 1.344.156.656.156 1.219.453v2.719q-.625-.579-1.219-.844-.594-.281-1.219-.281-1.344 0-2.031 1.078-.687 1.062-.687 3.156t.687 3.172q.688 1.062 2.031 1.062.625 0 1.219-.265.594-.281 1.219-.86z"/><text x="214.53" y="132.57" fill="#D9B8FF" font-family="Helvetica" font-size="17" textLength="163">digitalocean_region</text><rect width="196" height="39.789" x="30.03" y="7" fill="#3D176E" rx="2.5" ry="2.5" style="stroke:#000d19;stroke-width:.5"/><circle cx="45.03" cy="26.895" r="11" fill="#ADD1B2" style="stroke:#181818;stroke-width:1"/><path d="M47.999 32.535q-.578.297-1.219.438-.64.156-1.344.156-2.5 0-3.828-1.64-1.312-1.657-1.312-4.782t1.312-4.781q1.328-1.656 3.828-1.656.703 0 1.344.156.656.156 1.219.453v2.719q-.625-.578-1.219-.844-.594-.281-1.219-.281-1.343 0-2.031 1.078-.687 1.062-.687 3.156t.687 3.172q.688 1.062 2.031 1.062.625 0 1.219-.265.594-.281 1.219-.86z"/><text x="64.03" y="32.78" fill="#D9B8FF" font-family="Helvetica" font-size="17" textLength="154">digitalocean_team</text><path fill="none" d="M176.03 246.8v53.19" style="stroke:#1a83af;stroke-width:2"/><path fill="#1A83AF" d="m176.03 305.99 4-9-4 4-4-4z" style="stroke:#1a83af;stroke-width:2"/><path fill="none" d="M294.6 147.04c13.07 24.6 30.32 67.67 12.43 99.33-15.8 27.97-40.466 44.64-67.856 57.07" style="stroke:#1a83af;stroke-width:2"/><path fill="#1A83AF" d="m233.71 305.92 9.849-.077-5.296-1.99 1.99-5.295z" style="stroke:#1a83af;stroke-width:2"/><path fill="none" d="M261.89 147.01c-18.76 17.14-41.593 38-60.333 55.14" style="stroke:#1a83af;stroke-width:2"/><path fill="#1A83AF" d="m197.13 206.2 9.34-3.123-5.65-.251.251-5.652z" style="stroke:#1a83af;stroke-width:2"/><path fill="none" d="M109.78 47.17C74.99 86.32 6 177.31 45.03 246.37c15.8 27.97 40.466 44.64 67.856 57.07" style="stroke:#1a83af;stroke-width:2"/><path fill="#1A83AF" d="m118.35 305.92-6.542-7.362 1.989 5.296-5.296 1.99z" style="stroke:#1a83af;stroke-width:2"/><path fill="none" d="M132.72 47.2c9.18 37.77 27.994 115.23 37.184 153.06" style="stroke:#1a83af;stroke-width:2"/><path fill="#1A83AF" d="m171.32 206.09 1.762-9.69-2.942 4.831-4.831-2.942z" style="stroke:#1a83af;stroke-width:2"/><path fill="none" d="M158.65 47.22c27.18 17.14 61.596 38.858 88.746 55.988" style="stroke:#1a83af;stroke-width:2"/><path fill="#1A83AF" d="m252.47 106.41-5.477-8.185 1.248 5.517-5.517 1.248z" style="stroke:#1a83af;stroke-width:2"/></svg>
